X: 15497
T: Glenlivet, The
R: strathspey
M: 4/4
K: Amajor
A,>CE>C D>FA>F|E>Ac>A B<B, B,>C|A,>CE>C D>FA>F|E>A B<e c<A [A,2A2]|
A,>CE>C D>FA>F|E>A .d/.c/.B/.A/ B<B, B,>C|A,>CE>C D>FA>F|E>A B<e c<A [A,2A2]||
{g}a>A c<f e>Ac>A|E>Ac>A B<B, B,>g|{g}a>A c<f [ee]>Ac>A|E>A B<e c<A A>g|
{g}a>A c<f e<c {g}a>A|e>Ac>A B<B, B,>C|A,>CE>C D>FA>F|E>A B<e c<A [A,2A2]||

